svg/electron.svg

<svg viewBox="0 0 20 20" xmlns="http://www.w3.org/2000/svg">
<rect width="100%" height="100%" fill="#2F3242"/>
<path fill-rule="evenodd" clip-rule="evenodd" d="M10.0067 2C9.41934 2 8.94398 2.4711 8.94398 3.05124C8.94398 3.63138 9.41934 4.10249 10.0067 4.10249C10.3785 4.10249 10.7054 3.91379 10.8953 3.62818C11.4644 3.98913 11.9957 4.69692 12.4029 5.6896C12.8675 6.822 13.1506 8.27878 13.1506 9.87531C13.1506 11.1756 12.9628 12.3844 12.6413 13.401C12.5912 13.5594 12.6806 13.728 12.841 13.7775C13.0014 13.827 13.172 13.7387 13.2221 13.5803C13.5636 12.5003 13.759 11.2306 13.759 9.87531C13.759 8.21321 13.4651 6.67811 12.9668 5.46375C12.5089 4.34754 11.8605 3.4612 11.0693 3.03114C11.0585 2.46026 10.5873 2 10.0067 2ZM9.55244 3.05124C9.55244 2.80224 9.75629 2.60119 10.0067 2.60119C10.2572 2.60119 10.4611 2.80224 10.4611 3.05124C10.4611 3.30025 10.2572 3.5013 10.0067 3.5013C9.75629 3.5013 9.55244 3.30025 9.55244 3.05124Z" fill="#A2ECFB"/>
<path d="M7.09951 13.5615C7.25771 13.5056 7.43183 13.587 7.4884 13.7433C7.79166 14.5813 8.18503 15.2546 8.62598 15.7131C9.066 16.1707 9.53619 16.3988 10.0069 16.3988C10.6878 16.3988 11.375 15.9152 11.9495 14.9696C12.0359 14.8273 12.2228 14.7812 12.3669 14.8666C12.511 14.952 12.5576 15.1367 12.4712 15.279C11.8507 16.3005 11.0017 17 10.0069 17C9.32145 17 8.7019 16.6648 8.18487 16.1273C7.66875 15.5905 7.23773 14.8362 6.91546 13.9457C6.85889 13.7894 6.94129 13.6174 7.09951 13.5615Z" fill="#A2ECFB"/>
<path d="M8.23313 5.53136C8.20298 5.69468 8.04453 5.80293 7.87925 5.77313C6.99348 5.61348 6.20691 5.61367 5.58457 5.76216C4.9636 5.91032 4.5283 6.19932 4.29261 6.60332C3.94342 7.20184 4.03623 8.06013 4.61185 9.0537C4.69532 9.19778 4.64479 9.38143 4.49896 9.46391C4.35313 9.54639 4.16726 9.49644 4.08379 9.35237C3.46498 8.28428 3.25623 7.17592 3.76546 6.30308C4.10826 5.71549 4.71177 5.35193 5.44175 5.17776C6.17038 5.00391 7.04697 5.01201 7.98843 5.1817C8.15373 5.21149 8.26328 5.36805 8.23313 5.53136Z" fill="#A2ECFB"/>
<path fill-rule="evenodd" clip-rule="evenodd" d="M5.13363 10.3023C5.258 10.1906 5.45041 10.1997 5.56339 10.3226C6.2963 11.1196 7.27293 11.8992 8.42931 12.5599C9.80833 13.3478 11.2062 13.8314 12.4185 14.0053C13.4758 14.157 14.356 14.0687 14.9644 13.7795C14.9066 13.6498 14.8745 13.5064 14.8745 13.3556C14.8745 12.7754 15.3498 12.3043 15.9372 12.3043C16.5246 12.3043 17 12.7754 17 13.3556C17 13.9357 16.5246 14.4068 15.9372 14.4068C15.7301 14.4068 15.5369 14.3483 15.3736 14.247C14.5965 14.6741 13.5143 14.77 12.3311 14.6002C11.0316 14.4138 9.56073 13.9008 8.12473 13.0804C6.9193 12.3917 5.89213 11.5741 5.11305 10.7269C5.00006 10.604 5.00927 10.4139 5.13363 10.3023ZM15.6531 13.7068C15.731 13.7687 15.8298 13.8056 15.9372 13.8056C16.1877 13.8056 16.3915 13.6046 16.3915 13.3556C16.3915 13.1066 16.1877 12.9055 15.9372 12.9055C15.6868 12.9055 15.4829 13.1066 15.4829 13.3556C15.4829 13.4597 15.5186 13.5554 15.5783 13.6316C15.6068 13.6515 15.6322 13.6767 15.6531 13.7068Z" fill="#A2ECFB"/>
<path d="M14.6552 10.0949C14.5468 10.2216 14.5629 10.4113 14.6912 10.5185C14.8195 10.6256 15.0115 10.6097 15.12 10.4829C15.7364 9.76232 16.1794 9.0169 16.3901 8.30733C16.6012 7.59647 16.5842 6.89941 16.2421 6.31314C15.7411 5.45433 14.6926 5.07712 13.4755 5.06145C13.3075 5.05928 13.1695 5.19211 13.1673 5.3581C13.1651 5.5241 13.2995 5.66042 13.4675 5.66259C14.5953 5.6771 15.3717 6.02492 15.715 6.61338C15.9503 7.01663 15.9859 7.53312 15.8063 8.13806C15.6262 8.74427 15.2352 9.4169 14.6552 10.0949Z" fill="#A2ECFB"/>
<path fill-rule="evenodd" clip-rule="evenodd" d="M11.8586 5.83613C12.0229 5.80131 12.1275 5.64148 12.0922 5.47916C12.057 5.31686 11.8952 5.2135 11.7309 5.24834C10.5902 5.4902 9.3482 5.96437 8.1304 6.66018C6.65218 7.50474 5.44038 8.54403 4.62609 9.59566C3.88009 10.5591 3.43909 11.5718 3.48872 12.4707C3.19464 12.6578 3 12.9844 3 13.3556C3 13.9357 3.47536 14.4068 4.06276 14.4068C4.65015 14.4068 5.12554 13.9357 5.12554 13.3556C5.12554 12.7857 4.66678 12.321 4.09375 12.3048C4.10326 11.6367 4.44456 10.8195 5.10936 9.96096C5.86784 8.98138 7.01511 7.99186 8.43498 7.1806C9.60331 6.51308 10.786 6.06355 11.8586 5.83613ZM4.06276 12.9055C3.81231 12.9055 3.60846 13.1066 3.60846 13.3556C3.60846 13.6046 3.81231 13.8056 4.06276 13.8056C4.31322 13.8056 4.51708 13.6046 4.51708 13.3556C4.51708 13.1066 4.31322 12.9055 4.06276 12.9055Z" fill="#A2ECFB"/>
<path d="M9.32879 10.0203C9.40987 10.3909 9.77885 10.6265 10.1534 10.5464C10.5279 10.4661 10.7659 10.101 10.685 9.73036C10.6039 9.35972 10.2349 9.12418 9.86042 9.20427C9.48588 9.28449 9.24802 9.64965 9.32879 10.0203Z" fill="#A2ECFB"/>
</svg>

<svg xmlns="http://www.w3.org/2000/svg" viewBox="0 0 20 20">
  <rect width="100%" height="100%" fill="#2F3242"/>
  <path fill="#A2ECFB" fill-rule="evenodd" d="M10 2c-.58 0-1.06.47-1.06 1.05 0 .58.48 1.05 1.07 1.05.37 0 .7-.19.89-.47.56.36 1.1 1.07 1.5 2.06.47 1.13.75 2.59.75 4.19 0 1.3-.19 2.5-.5 3.52a.3.3 0 0 0 .2.38.3.3 0 0 0 .37-.2c.34-1.08.54-2.35.54-3.7 0-1.67-.3-3.2-.8-4.42-.45-1.11-1.1-2-1.9-2.43A1.06 1.06 0 0 0 10.02 2Zm-.45 1.05c0-.25.2-.45.46-.45.25 0 .45.2.45.45s-.2.45-.45.45a.45.45 0 0 1-.46-.45Z" clip-rule="evenodd"/>
  <path fill="#A2ECFB" d="M7.1 13.56a.3.3 0 0 1 .39.18c.3.84.7 1.51 1.14 1.97.44.46.9.69 1.38.69.68 0 1.37-.48 1.94-1.43a.3.3 0 0 1 .42-.1c.14.08.19.27.1.4C11.85 16.3 11 17 10.01 17c-.69 0-1.3-.34-1.83-.87a6.19 6.19 0 0 1-1.26-2.18.3.3 0 0 1 .18-.39ZM8.23 5.53a.3.3 0 0 1-.35.24 5.74 5.74 0 0 0-2.3 0c-.62.14-1.05.43-1.29.83-.35.6-.25 1.46.32 2.45a.3.3 0 0 1-.11.41.3.3 0 0 1-.42-.1c-.62-1.08-.82-2.18-.31-3.06.34-.58.94-.95 1.67-1.12C6.17 5 7.04 5 8 5.18a.3.3 0 0 1 .24.35Z"/>
  <path fill="#A2ECFB" fill-rule="evenodd" d="M5.13 10.3a.3.3 0 0 1 .43.02c.74.8 1.71 1.58 2.87 2.24 1.38.79 2.78 1.27 3.99 1.45 1.06.15 1.94.06 2.54-.23a1.06 1.06 0 0 1 .97-1.48 1.06 1.06 0 1 1 0 2.1c-.2 0-.4-.05-.56-.15-.77.42-1.86.52-3.04.35-1.3-.19-2.77-.7-4.2-1.52-1.21-.69-2.24-1.5-3.02-2.35a.3.3 0 0 1 .02-.43Zm10.52 3.4a.46.46 0 0 0 .74-.34.45.45 0 0 0-.9 0c0 .1.03.2.09.27a.3.3 0 0 1 .07.08Z" clip-rule="evenodd"/>
  <path fill="#A2ECFB" d="M14.66 10.1a.3.3 0 0 0 .03.42c.13.1.32.09.43-.04a6.18 6.18 0 0 0 1.27-2.17c.21-.71.2-1.41-.15-2-.5-.86-1.55-1.23-2.76-1.25a.3.3 0 0 0-.31.3c0 .16.13.3.3.3 1.13.02 1.9.36 2.24.95.24.4.28.92.1 1.53-.18.6-.57 1.28-1.15 1.95Z"/>
  <path fill="#A2ECFB" fill-rule="evenodd" d="M11.86 5.84a.3.3 0 1 0-.13-.6c-1.14.25-2.38.72-3.6 1.42a11.97 11.97 0 0 0-3.5 2.94 4.55 4.55 0 0 0-1.14 2.87 1.05 1.05 0 0 0 .57 1.94c.59 0 1.07-.47 1.07-1.05 0-.57-.46-1.04-1.04-1.06.01-.66.35-1.48 1.02-2.34C5.87 8.98 7 8 8.43 7.18a12.08 12.08 0 0 1 3.43-1.34Zm-7.8 7.07c-.25 0-.45.2-.45.45a.45.45 0 0 0 .9 0c0-.25-.2-.45-.45-.45Z" clip-rule="evenodd"/>
  <path fill="#A2ECFB" d="M9.33 10.02a.7.7 0 0 0 1.36-.29.7.7 0 0 0-1.36.29Z"/>
</svg>
